T: Paddy McFadden's
M: 12/8
L: 1/8
K: Ador
e2 A ABA | e2 f g2 f | e2 A ABA | G2 A Bcd |e2 A ABA | e2 f g2 f | efe e2 d | B2 A A2- :|e2 a a2 g | e2 f g2 f | e2 a a2 g | e2 d Bcd |e2 a a2 g | e2 f g2 f | efe e2 d | B2 A A2- :|
